!!!!SEGMENT: pl-kk--kk-i-40--008-003_pottier-matthias--missa-sine-nomine-sanctus.krn
!!!cenid: 16xx:1308
!!!COM: Pottier, Matthias
!!!COM-rismid: pe41020834
!!!CDT: ~1553-1629
!!!CNT: Belgian
!!!OPR: Missa sine nomine
!!!OTL: Sanctus
!!!OMV: 003
!!!PDT:
!!!AGN: Sacred; Mass
!!!SMS-siglum: PL-Kk
!!!SMS-shelfmark: Kk.I.40
!!!SMS-shelfwork: 008-003 M
!!!SMS-variant:
!!!SMS-altvar:
!!!NIFC-rismid: 1001154530
!!!URL-scan: http://repozytorium.nifc.pl/skany/pl-kk-nut--i-40
!!!ONB-nifc: UWAGA: części Mszy: 1. Kyrie, 2. Et in terra, 3. Sanctus, 4. Agnus Dei. Skan 0011-0012
**kern	**text
*Iempty	*
*I"Baſso Ripieno.	*
*I'B rip	*
*clefC4	*
*k[]	*
*d:	*
*M2/1	*
*met(C|)	*
=1-	=1-
00r	.
=2-	=2-
.	.
=3-	=3-
!LO:TX:t=P:problem:kreska pseudotaktowa	!
1r	.
1d	San-
=4-	=4-
*lig	*
1A	-ct(us)
!LO:TX:t=P:problem:kreska pseudotaktowa	!
1d	.
*Xlig	*
=5-	=5-
1r	.
*	*ij
1A	San-
=6-	=6-
*lig	*
1E	-ct(us)
!LO:TX:t=P:problem:kreska pseudotaktowa	!
1A	.
*Xlig	*Xij
=7-	=7-
0A	San-
=8-	=8-
1d	.
*2\right	*
2.c\	.
4d\	.
=9-	=9-
!LO:TX:t=P:problem:kreska pseudotaktowa	!
1e,<	-ct(us)
*	*ij
2.A\	San-
!LO:TX:t=P:problem:kreska pseudotaktowa	!
4B\	.
=10-	=10-
2c\	.
2d\	.
!LO:TX:t=P:problem:kreska pseudotaktowa	!
1A	-ct(us)
*	*Xij
=11-	=11-
2r	.
2.d\	Do-
4d\	-mi-
!LO:TX:t=P:problem:kreska pseudotaktowa	!
2c#X\	-n(us)
=12-	=12-
2d\	De-
2G,</	-us
2B-X\	Sab-
2B-\	-ba-
=13-	=13-
!LO:TX:t=P:problem:kreska pseudotaktowa	!
1A,<	-oth
0r	.
=14-	=14-
.	.
2r	.
2.d\	Do-
=15-	=15-
.	.
4d\	-mi-
!LO:TX:t=P:problem:kreska pseudotaktowa	!
2c#X\	-n(us)
2d\	De-
!LO:TX:t=P:problem:kreska pseudotaktowa	!
2G/	-us
!LO:LB:g=original	!
=16-	=16-
1A	.
2.D/	.
4D/	-ba-
=17-	=17-
!LO:TX:t=P:problem:kreska pseudotaktowa	!
1E	-oth
2r	.
2A\	Ple-
=18-	=18-
2d\	-ni
!LO:TX:t=P:problem:kreska pseudotaktowa	!
2cny\	sunt
2.B-X\	cae-
!LO:TX:t=P:problem:kreska pseudotaktowa	!
4A/	.
=19-	=19-
1G	.
!LO:TX:t=P:problem:kreska pseudotaktowa	!
0.F	li
=20-	=20-
.	.
=21-	=21-
2r	.
!LO:TX:t=P:problem:kreska pseudotaktowa	!
2F/	et
2.f\	ter-
4e\	.
=22-	=22-
4d\	.
4c\	.
2d\	.
!LO:TX:t=P:problem:kreska pseudotaktowa	!
0A	-ra
=23-	=23-
.	.
2r	.
1A\	glo-
=24-	=24-
.	.
!LO:TX:t=P:problem:kreska pseudotaktowa	!
2A\	.
2.F/	.
4E/	-ri-
=25-	=25-
1D	-a
!LO:TX:t=P:problem:kreska pseudotaktowa	!
1A	tu-
=26-	=26-
2D,</	-a
1d	glo-
2d\	-ri-
=27-	=27-
!LO:TX:t=P:problem:kreska pseudotaktowa	!
1B-X	-a
1G	tu-
=28-	=28-
0Dl	-a.
!LO:PB:g=original	!
=29||	=29||
*M2/1	*
*met(C|)	*
00r	.
=30-	=30-
.	.
=31-	=31-
2r	.
!LO:TX:t=P:problem:kreska pseudotaktowa	!
2D/	O-
2G/	-san-
4F#X/	-na
2G/	in
=32-	=32-
.	.
!LO:TX:a:t=P:problem:♭ above	!
4B-X\	ex-
2A\	-cel-
!LO:TX:t=P:problem:kreska pseudotaktowa	!
1D	-ſis.
=33-	=33-
!LO:TX:t=P:problem:kreska pseudotaktowa	!
!LO:TX:a:t=1.	!
1r	.
2r	.
!LO:TX:t=P:problem:kreska pseudotaktowa	!
2A\	O-
=34-	=34-
2d\	-san-
4c#X\	-na
2d\	in
4f\	ex-
!LO:TX:t=P:problem:kreska pseudotaktowa	!
2e\	-cel-
=35-	=35-
2d\	-ſis
!LO:TX:t=P:problem:kreska pseudotaktowa	!
2r	.
2r	.
*	*ij
!LO:TX:t=P:problem:kreska pseudotaktowa	!
2A\	O-
=36-	=36-
2d\	-san-
4c#X\	-na
2d\	in
4f\	ex-
!LO:TX:t=P:problem:kreska pseudotaktowa	!
2e\	-cel-
=37-	=37-
2d,<\	-ſis
*	*Xij
!LO:TX:t=P:problem:kreska pseudotaktowa	!
2D/	O-
2G/	-san-
4F#X/	-na
2G/	in
=38-	=38-
.	.
!LO:TX:a:t=P:problem:♭ above	!
4B-X/	ex-
!LO:TX:t=P:problem:kreska pseudotaktowa	!
2A\	-cel-
!LO:TX:t=P:problem:kreska pseudotaktowa	!
0D	-ſis
=39-	=39-
.	.
2r	.
!LO:TX:t=P:problem:kreska pseudotaktowa	!
2E/	O-
=40-	=40-
2A/	-san-
!LO:TX:t=P:problem:kreska pseudotaktowa	!
2Fny/	-na
!LO:LB:g=original	!
4D/	in
4D/	ex-
2E/	-cel-
=41-	=41-
!LO:TX:t=P:problem:kreska pseudotaktowa	!
1A	-ſis
1r	.
=42-	=42-
2r	.
!LO:TX:t=P:problem:kreska pseudotaktowa	!
2A\	O-
2d\	-san-
!LO:TX:t=P:problem:kreska pseudotaktowa	!
2B-X\	-na
=43-	=43-
2G/	in
2G/	ex-
0.A	-cel-
=44-	=44-
.	.
=45-	=45-
!LO:TX:a:Bi:t=Benedictus\nTacet	!
0Dl;	-ſis.
=46||	=46||
!LO:TX:a:Bi:t=Osanna da Capo	!
.	.
==	==
*-	*-
!!!RDF**kern: < = below
!!!RDF**kern: l = terminal long
!!!ENC: Andrzej Kubiczek
!!!END: 2021-08-01
!!!ENC: Krzysztof Stępień
!!!END: 2021-07-05
